apps/projects/images/icon.svg

<?xml version="1.0" encoding="UTF-8"?>
<svg width="17px" height="13px" viewBox="0 0 17 13" version="1.1" xmlns="http://www.w3.org/2000/svg" xmlns:xlink="http://www.w3.org/1999/xlink">
    <!-- Generator: Sketch 49.3 (51167) - http://www.bohemiancoding.com/sketch -->
    <title>Shape</title>
    <desc>Created with Sketch.</desc>
    <defs></defs>
    <g id="Symbols" stroke="none" stroke-width="1" fill="none" fill-rule="evenodd">
        <g id="Address-Book-bg" transform="translate(-33.000000, -252.000000)" fill="#8B9396" fill-rule="nonzero">
            <g id="Group-35" transform="translate(0.000000, 90.000000)">
                <g id="Group-3-Copy" transform="translate(30.000000, 157.000000)">
                    <path d="M5.36111111,10.8590535 C5.11625514,10.8590535 4.92386831,11.0514403 4.92386831,11.2962963 L4.92386831,12.8004115 L3.4372428,12.8004115 C3.19238683,12.8004115 3,12.9927984 3,13.2376543 L3,17.0853909 C3,17.3302469 3.19238683,17.5226337 3.4372428,17.5226337 L7.28497942,17.5226337 C7.52983539,17.5226337 7.72222222,17.3302469 7.72222222,17.0853909 L7.72222222,13.2376543 C7.72222222,12.9927984 7.52983539,12.8004115 7.28497942,12.8004115 L5.79835391,12.8004115 L5.79835391,11.7335391 L11.0627572,11.7335391 L11.0627572,12.8004115 L9.57613169,12.8004115 C9.33127572,12.8004115 9.13888889,12.9927984 9.13888889,13.2376543 L9.13888889,17.0853909 C9.13888889,17.3302469 9.33127572,17.5226337 9.57613169,17.5226337 L13.4238683,17.5226337 C13.6687243,17.5226337 13.8611111,17.3302469 13.8611111,17.0853909 L13.8611111,13.2376543 C13.8611111,12.9927984 13.6687243,12.8004115 13.4238683,12.8004115 L11.9372428,12.8004115 L11.9372428,11.7335391 L17.2016461,11.7335391 L17.2016461,12.8004115 L15.7150206,12.8004115 C15.4701646,12.8004115 15.2777778,12.9927984 15.2777778,13.2376543 L15.2777778,17.0853909 C15.2777778,17.3302469 15.4701646,17.5226337 15.7150206,17.5226337 L19.5627572,17.5226337 C19.8076132,17.5226337 20,17.3302469 20,17.0853909 L20,13.2376543 C20,12.9927984 19.8076132,12.8004115 19.5627572,12.8004115 L18.0761317,12.8004115 L18.0761317,11.2962963 C18.0761317,11.0514403 17.8837449,10.8590535 17.6388889,10.8590535 L11.9372428,10.8590535 L11.9372428,9.72222222 L13.4238683,9.72222222 C13.6687243,9.72222222 13.8611111,9.52983539 13.8611111,9.28497942 L13.8611111,5.4372428 C13.8611111,5.19238683 13.6687243,5 13.4238683,5 L9.57613169,5 C9.33127572,5 9.13888889,5.19238683 9.13888889,5.4372428 L9.13888889,9.28497942 C9.13888889,9.52983539 9.33127572,9.72222222 9.57613169,9.72222222 L11.0627572,9.72222222 L11.0627572,10.8590535 L5.36111111,10.8590535 Z M6.84773663,13.6748971 L6.84773663,16.6481481 L3.8744856,16.6481481 L3.8744856,13.6748971 L6.84773663,13.6748971 Z M19.1255144,13.6748971 L19.1255144,16.6481481 L16.1522634,16.6481481 L16.1522634,13.6748971 L19.1255144,13.6748971 Z M10.0133745,8.84773663 L10.0133745,5.8744856 L12.9866255,5.8744856 L12.9866255,8.84773663 L10.0133745,8.84773663 Z M12.9866255,13.6748971 L12.9866255,16.6481481 L10.0133745,16.6481481 L10.0133745,13.6748971 L12.9866255,13.6748971 Z" id="Shape"></path>
                </g>
            </g>
        </g>
    </g>
</svg>

<svg xmlns="http://www.w3.org/2000/svg" width="22" height="22">
    <path fill="#8B9396" fill-rule="nonzero" d="M5.361 10.86a.433.433 0 0 0-.437.436V12.8H3.437a.433.433 0 0 0-.437.438v3.847c0 .245.192.438.437.438h3.848a.433.433 0 0 0 .437-.438v-3.847a.433.433 0 0 0-.437-.438H5.798v-1.066h5.265V12.8H9.576a.433.433 0 0 0-.437.438v3.847c0 .245.192.438.437.438h3.848a.433.433 0 0 0 .437-.438v-3.847a.433.433 0 0 0-.437-.438h-1.487v-1.066h5.265V12.8h-1.487a.433.433 0 0 0-.437.438v3.847c0 .245.192.438.437.438h3.848a.433.433 0 0 0 .437-.438v-3.847a.433.433 0 0 0-.437-.438h-1.487v-1.504a.433.433 0 0 0-.437-.437h-5.702V9.722h1.487a.433.433 0 0 0 .437-.437V5.437A.433.433 0 0 0 13.424 5H9.576a.433.433 0 0 0-.437.437v3.848c0 .245.192.437.437.437h1.487v1.137H5.36zm1.487 2.815v2.973H3.874v-2.973h2.974zm12.278 0v2.973h-2.974v-2.973h2.974zm-9.113-4.827V5.874h2.974v2.974h-2.974zm2.974 4.827v2.973h-2.974v-2.973h2.974z"/>
</svg>
